packages/core/src/svgs/tokens/mono/MMY.svg

<svg width="24" height="24" viewBox="0 0 24 24" fill="none" xmlns="http://www.w3.org/2000/svg">
<path d="M8.58389 19.9549C8.58389 19.9549 9.56165 19.305 11.6505 19.305C13.7339 19.305 14.7117 19.9549 14.7117 19.9549C14.7117 19.9549 14.4283 20.3105 14.0839 20.4106C13.7395 20.5217 13.2838 20.4216 12.7117 20.8161C12.1395 21.205 11.6505 21.1661 11.6505 21.1661C11.6505 21.1661 11.1561 21.205 10.5839 20.8161C10.0172 20.4216 9.55607 20.5161 9.21165 20.4106C8.86722 20.3105 8.58389 19.9549 8.58389 19.9549ZM10.9228 5.78828C10.3283 5.75494 9.48944 5.82161 8.98946 5.64939C8.12833 5.35494 7.98943 5.0605 7.26721 5.20495C6.73388 5.31606 6.6061 5.71605 6.5561 6.12716C7.83944 5.90495 8.57833 6.19383 8.57833 6.19383C6.72833 6.38273 6.1061 6.86605 6.06722 6.89939C6.01827 6.93995 5.97689 6.98885 5.94499 7.04384C5.88944 7.17162 5.93388 7.21051 5.94499 7.45495C8.51166 6.69939 10.5562 7.22717 10.5562 7.22717C8.73184 7.22841 6.9288 7.61855 5.2672 8.37161L5.51166 9.20495C7.05055 8.66605 7.91721 9.0494 7.91721 9.0494C7.00055 9.26606 6.11165 9.59939 5.28387 10.0383L5.43943 10.4271C5.08388 10.6883 4.78943 11.6772 4.78943 11.6772C4.70054 11.1439 5.05054 10.405 5.05054 10.405C4.32832 10.4494 4.05054 11.1161 4.05054 11.666C4.05054 12.2216 4.42277 12.8494 4.8672 13.255C5.31165 13.6605 5.41165 14.1106 5.41165 14.1106C5.74499 13.2216 5.09499 13.1438 5.27277 12.0828C5.45054 11.0272 6.76722 10.4605 6.76722 10.4605C6.49499 10.405 6.22277 10.3605 5.94499 10.3494C6.51166 10.2606 6.9061 9.38273 10.4116 11.5882C13.9172 13.7995 16.0894 11.5661 17.2561 10.8882C17.6005 11.166 17.9617 11.5661 18.0506 12.0828C18.2283 13.1438 17.5728 13.2161 17.9116 14.1106C17.9116 14.1106 18.0117 13.6661 18.4561 13.255C18.9006 12.8494 19.2727 12.2216 19.2727 11.666C19.2727 11.1105 18.9951 10.4439 18.2728 10.405C18.2728 10.405 18.6228 11.1439 18.5339 11.6827C18.5339 11.6827 18.2283 10.6495 17.8673 10.405L18.0562 9.93831L17.8783 9.81049C15.3784 8.34383 11.6505 8.39939 11.6505 8.39939C15.2617 8.09384 17.8173 9.22162 17.8173 9.22162L18.0283 8.37161L17.3728 8.06606C17.3728 8.06606 17.4006 7.45495 17.295 7.23272C17.2339 7.10495 17.0451 6.97717 16.9061 6.89383C15.545 6.31606 13.2061 6.19383 13.2061 6.19383C15.2895 6.00495 16.3228 6.12716 16.7395 6.2105C16.6672 5.78828 16.4783 5.15494 16.0116 5.06605C15.7777 5.0054 15.5315 5.01117 15.3006 5.08272C15.1207 4.87279 14.8916 4.71057 14.6339 4.61049C14.2561 4.49939 13.7451 4.60494 13.1173 4.16606C12.4895 3.73272 11.945 3.77717 11.945 3.77717C11.945 3.77717 11.4006 3.73272 10.7728 4.16606C10.1394 4.60494 9.63385 4.49939 9.25611 4.61049C8.87837 4.72716 8.56166 5.1105 8.56166 5.1105C8.56166 5.1105 9.32274 5.62161 10.9228 5.78828Z" fill="white"/>
<path d="M11.6501 18.9662C11.6501 18.9662 9.8724 18.9718 9.01127 19.2662C8.15019 19.5606 8.01131 19.8607 7.28909 19.7107C6.75575 19.5995 6.64463 19.1495 6.59463 18.7385C7.87242 18.9607 8.57797 18.5829 8.57797 18.5829C6.72797 18.3939 6.10575 17.9107 6.06686 17.8773C6.0174 17.8351 5.97599 17.7843 5.94463 17.7274C5.88908 17.6051 5.90574 17.5218 5.91685 17.2829C8.48352 18.0385 10.5558 17.5495 10.5558 17.5495C8.73148 17.5483 6.92844 17.1581 5.26685 16.4051L5.52241 15.4772C7.12241 15.8661 7.9113 15.7273 7.9113 15.7273C6.9947 15.5121 6.10963 15.1797 5.27797 14.7383L5.48352 14.2495C8.07241 15.2718 15.2169 15.2718 17.8113 14.2495L18.0558 14.8384L17.878 14.9607C15.378 16.4329 11.6501 16.3773 11.6501 16.3773C15.2614 16.6884 17.8169 15.555 17.8169 15.555L18.0279 16.4051L17.3724 16.7107C17.3724 16.7107 17.4557 17.505 17.3502 17.7274C17.2836 17.8606 17.1002 17.9884 16.9613 18.0718C15.6002 18.6495 13.2057 18.5829 13.2057 18.5829C15.2891 18.7718 16.3058 18.7884 16.7224 18.7106C16.6502 19.1328 16.4835 19.6162 16.0113 19.7107C15.2891 19.8607 15.1447 19.5662 14.2892 19.2662C13.428 18.9718 11.6501 18.9662 11.6501 18.9662Z" fill="white"/>
<path d="M7.77784 12.1943C7.77784 12.1943 7.44451 12.9665 8.0945 13.2721C8.7445 13.5832 10.3723 13.4276 10.3723 13.4276C10.3723 13.4276 8.96123 12.4165 7.77784 12.1943ZM15.8556 12.9887C15.8556 12.9887 15.9834 13.6277 15.4334 13.7665C14.8889 13.8999 13.6668 13.5277 13.6668 13.5277C13.6668 13.5277 14.9167 12.9721 15.8556 12.9887Z" fill="white"/>
<path d="M18.1779 8.41054C18.1779 8.41054 19.9556 8.48832 20.7111 8.89944C21.3668 9.24944 22 10.0662 22 10.0662C22 10.0662 21.0667 10.3494 20.7778 10.6772C20.5112 10.9828 20.4556 11.1216 20.4556 11.1216C20.4556 11.1216 19.2223 9.77722 17.9778 9.27721L18.1779 8.4161V8.41054ZM16.1278 19.5884C16.1278 19.5884 16.739 20.1105 17.2889 20.2605C17.7611 20.3883 18.4445 20.2994 18.4445 20.2994C18.4445 20.2994 18.15 19.7439 18.1723 19.4661C18.1945 19.1995 18.2389 19.1106 18.2389 19.1106C17.7166 19.0439 17.2056 18.905 16.7222 18.7105L16.1278 19.5884ZM5.14444 14.1384C5.14444 14.1384 4.75556 14.9273 3.87222 15.155C3.10555 15.3551 2 15.2105 2 15.2105C2 15.2105 2.47778 14.3717 2.44444 13.9383C2.40555 13.5439 2.33888 13.405 2.33888 13.405C2.33888 13.405 3.90556 13.8883 4.62778 13.3883L5.14444 14.1384ZM8.47779 5.03831C8.47779 5.03831 7.78889 4.54943 7.50556 4.03832C7.26112 3.59387 7.20556 2.89387 7.20556 2.89387C7.20556 2.89387 7.85556 3.06054 8.15 2.9772C8.42779 2.89387 8.51111 2.83276 8.51111 2.83276C8.51111 2.83276 8.39445 3.87164 8.92773 4.60499L8.48334 5.03831H8.47779Z" fill="white"/>
</svg>

<svg xmlns="http://www.w3.org/2000/svg" width="24" height="24" fill="none" viewBox="0 0 24 24">
    <path fill="#fff" d="M8.584 19.955s.978-.65 3.066-.65c2.084 0 3.062.65 3.062.65s-.284.356-.628.456c-.344.11-.8.01-1.372.405-.572.389-1.062.35-1.062.35s-.494.039-1.066-.35c-.567-.394-1.028-.3-1.372-.405-.345-.1-.628-.456-.628-.456m2.339-14.167c-.595-.033-1.434.034-1.934-.139-.86-.294-1-.588-1.722-.444-.533.111-.66.511-.71.922 1.282-.222 2.021.067 2.021.067-1.85.189-2.472.672-2.51.705a.5.5 0 0 0-.123.145c-.056.128-.011.167 0 .411 2.567-.756 4.611-.228 4.611-.228a12.8 12.8 0 0 0-5.289 1.145l.245.833c1.539-.539 2.405-.156 2.405-.156-.916.217-1.805.55-2.633.99l.155.388c-.355.261-.65 1.25-.65 1.25-.088-.533.262-1.272.262-1.272-.723.044-1 .711-1 1.261 0 .556.372 1.183.816 1.589.445.406.545.856.545.856.333-.89-.317-.967-.14-2.028.179-1.056 1.495-1.623 1.495-1.623a5 5 0 0 0-.822-.11c.567-.09.961-.967 4.467 1.238 3.505 2.212 5.677-.022 6.844-.7.345.278.706.678.795 1.195.177 1.06-.478 1.133-.14 2.028 0 0 .1-.445.545-.856.445-.406.817-1.033.817-1.589s-.278-1.222-1-1.261c0 0 .35.739.26 1.278 0 0-.305-1.033-.666-1.278l.19-.467-.179-.128c-2.5-1.466-6.228-1.41-6.228-1.41 3.612-.306 6.167.822 6.167.822l.211-.85-.655-.306s.028-.611-.078-.833c-.061-.128-.25-.256-.389-.34-1.361-.577-3.7-.7-3.7-.7 2.084-.188 3.117-.066 3.534.018-.073-.423-.262-1.056-.728-1.145a1.3 1.3 0 0 0-.711.017 1.7 1.7 0 0 0-.667-.473c-.378-.11-.889-.005-1.517-.444-.628-.433-1.172-.389-1.172-.389s-.544-.044-1.172.39c-.634.438-1.14.332-1.517.443-.378.117-.694.5-.694.5s.76.512 2.36.678"/>
    <path fill="#fff" d="M11.65 18.966s-1.778.006-2.639.3c-.86.295-1 .595-1.722.445-.533-.111-.644-.561-.694-.973 1.277.223 1.983-.155 1.983-.155-1.85-.19-2.472-.672-2.511-.706a.5.5 0 0 1-.122-.15c-.056-.122-.04-.205-.028-.444 2.567.755 4.639.266 4.639.266a12.8 12.8 0 0 1-5.29-1.144l.256-.928c1.6.39 2.39.25 2.39.25a11 11 0 0 1-2.634-.989l.206-.489c2.588 1.023 9.733 1.023 12.327 0l.245.59-.178.122c-2.5 1.472-6.228 1.416-6.228 1.416 3.611.311 6.167-.822 6.167-.822l.21.85-.655.306s.084.794-.022 1.016c-.066.134-.25.261-.389.345-1.36.578-3.755.51-3.755.51 2.083.19 3.1.206 3.516.129-.072.422-.239.905-.71 1-.723.15-.867-.145-1.723-.445-.861-.294-2.639-.3-2.639-.3m-3.872-6.772s-.333.772.317 1.078c.65.311 2.277.156 2.277.156s-1.41-1.012-2.594-1.234m8.078.795s.127.639-.423.777c-.544.134-1.766-.238-1.766-.238s1.25-.556 2.189-.54"/>
    <path fill="#fff" d="M18.178 8.41s1.778.078 2.533.49c.656.35 1.289 1.166 1.289 1.166s-.933.283-1.222.611c-.267.306-.322.445-.322.445s-1.234-1.345-2.478-1.845l.2-.86zm-2.05 11.178s.611.522 1.16.672c.473.128 1.157.04 1.157.04s-.295-.556-.273-.834c.023-.267.067-.355.067-.355a6.2 6.2 0 0 1-1.517-.4zm-10.984-5.45s-.388.79-1.272 1.017c-.766.2-1.872.056-1.872.056s.478-.84.444-1.273c-.038-.394-.105-.533-.105-.533s1.567.483 2.289-.017zm3.334-9.1s-.69-.489-.972-1c-.245-.444-.3-1.144-.3-1.144s.65.167.944.083c.278-.083.361-.144.361-.144s-.117 1.039.417 1.772l-.445.433z"/>
</svg>
